X: 552
T: Rättvikspolska efter Pers-Erik
S: efter Pers-Erik
R: Polska
O: Dalarna, Rättvik
Z: Håkan Lidén, 2008-09-28
M: 3/4
L: 1/8
K: D
A>c d<e f>a | (3:2:4af g2 e2 f2 | d>d c/d/c/A/ B>G | B<d A4 |
A>c d<e f>a | (3:2:4af g2 e2 f2 | a>a g/a/g/e/ f>d | e<c d4 :|
|: A2 fd A>F | G2 BA/G/ A2- | A2 EF G>A | BA/G/ A4 | 
A2 fd A>F | G2 BA/G/ A2- | A>c d>e f>d | e<c d4 :|]
(:musicend:)

(:music:)
